!!!!SEGMENT: 008-1c-KI-002-violoncello.krn
!!!COM: Chopin, Fryderyk
!!!OTL: Trio. Scherzo
!!!OPS: Op. 8
!!!PTL: Premier Trio pour Pianoforte, Violon et Violoncelle
!!!OMV: 2
!!!PPR: Fr. Kistner
!!!PPP: Leipzig
!!!NIFC-rismID: 1001002848
!!!NIFC-shelfmark: PL-Wbfc 3997/n
!!!OMD: SCHERZO.
!!!OMD: CON MOTO MA NON TROPPO.
**kern	**dynam
*staff2	*
*clefF4	*
*k[f#]	*
*G:	*
*M3/4	*
*>[A,A1,A,A2,B,B1,B,B2,C,C,D,D,A,A2,B,B2]	*
*>A	*>A
!LO:TX:t=P:there is 'SCHERZO.' before the staff:problem	!
(>4c^<	.
=2	=2
4B	.
4B-X	.
4A	.
=3	=3
2G	.
4F#	.
=4	=4
4E	.
4E-X	.
4D	.
=5	=5
4D	.
4GG)	.
4r	.
*clefC4	*
!LO:TX:Bi:b:t=espress.	!
=6	=6
(>4B	.
4c	.
8dL	.
!LO:TX:t=P:diminuendolike accent:problem	!
8c^<J	.
=7	=7
4B	.
8cL	.
8BJ	.
4A	.
=8	=8
4G)	.
4g	>
.	.
4e	.
=9	=9
8f#L	]
8eJ	.
!LO:TX:t=P:diminuendolike accent:problem	!
2d^<	.
!!LO:LB:g=original
=10	=10
(>4c	.
4d	.
8eL	.
8dJ)	.
=11	=11
4c	.
8fnL	.
8eJ	.
4d	.
=12	=12
4c	.
4A	.
(>8aL	.
8gJ	.
=13	=13
8f#XL	>
8eJ	.
.	]
4d)	.
4r	.
=14	=14
!LO:TX:t=P:problem: 1 nad pauzą	!
!LO:TX:B:a:t=1	!
2.rc	.
=15	=15
4r	.
(>2A	.
=16	=16
4d)	.
4r	.
4r	.
*clefF4	*
=17	=17
4r	.
!LO:TX:t=P:diminuendolike accent:problem	!
(<4BB^<	.
8AAL	.
8BBJ	.
=18	=18
2.C)	.
=19	=19
2.GG	.
=20	=20
2.C	.
=21	=21
2.GG	.
!!LO:LB:g=original
=22	=22
(>8GGL	.
8FF#	.
8GG	.
8AA	<
8BB	.
8D#XJ	.
.	[
=23	=23
8EL	.
.	>
8F#X	.
8A	.
.	]
8G	.
8E	.
8C#XJ	.
=24	=24
4D)	.
!LO:TX:Bi:t=Pizz.	!
4r	.
4DD'<	.
=25	=25
!!LO:TX:Bi:a:t=1o.
*>A1	*>A1
4GG'<	.
4r	.
=26:|!	=26:|!
!!LO:TX:Bi:a:t=2o.
*>A2	*>A2
4GG'	.
!LO:TX:Bi:b:t=Arco.	!
4r	.
4G	.
=27!|:	=27!|:
*>B	*>B
(>4F#	.
4Fn	.
4E	.
=28	=28
4D#X	.
4Dn	.
4C#X	.
=29	=29
4Cn	.
4BB	.
4C)	.
=30	=30
4D	.
4E	.
4r	.
=31	=31
!	!LO:DY:rj
4Fn`>	f
4F#X`>	.
4r	.
!!LO:LB:g=original
=32	=32
!	!LO:DY:rj
(>4F#	p>
4BB)	]
4r	.
!LO:TX:Bi:t=Pizz.	!
=33	=33
4F#	.
4FF#'<	.
4FF#'<	.
=34	=34
4BB'<	.
!LO:TX:Bi:a:t=Arco.	!
4r	.
(>4B^<	.
=35	=35
4B	.
4A	.
4G	.
=36	=36
4D#X	.
4F#	.
4E	.
=37	=37
(<2.C)	.
=38	=38
4BB)	.
4r	.
(>4B	>
=39	=39
8AL	.
8G#X	.
8B	.
8AJ	.
4Gn)	]
=40	=40
(>2F#^<	.
4E)	.
=41	=41
(<2.C	.
=42	=42
4BB`<)	.
(<2FF#	.
=43	=43
4BB)	.
(<2FF#	.
=44	=44
4BB)	.
4r	.
4r	.
!!LO:LB:g=original
=45	=45
!LO:TX:Bi:a:t=Pizz.	!
4FF#'<	.
4F#'>	.
4F#'>	.
=46	=46
8B'>	.
8r	.
!LO:TX:Bi:a:t=Arco.	!
(>2e^<	.
=47	=47
4d#X)	.
(>2e^<	.
=48	=48
2d#X)	.
4r	.
!LO:TX:Bi:t=Pizz.	!
=49	=49
4FF#'<	.
4F#'>	.
4F#'>	.
=50	=50
8BB'	.
!LO:TX:Bi:t=Arco.	!
8r	.
!	!LO:DY:rj
(>2F#^<	p
=51	=51
4B)	.
(>2F#^>	.
=52	=52
4B)	.
!	!LO:DY:a
(<2FF#	pp
=53	=53
4BB)	.
(<2FF#	.
=54	=54
4BB)	.
!	!LO:DY:a
!	!LO:DY:rj
[>2D^>	f
!LO:TX:Bi:t=poco a poco dimi-	!
=55	=55
[>2.D]	.
=56	=56
[>2.D]	.
=57	=57
2.D]	.
!!LO:LB:g=original
=58	=58
!LO:TX:Bi:t=nuendo.	!
4D	.
4r	.
4r	.
=59	=59
2.rF	.
*clefC4	*
=60	=60
2.rF	.
=61	=61
2.rF	.
=62	=62
!LO:TX:t=P:clef isn't displayed properly:problem	!
!LO:TX:Bi:t=espres.	!
(>4B	.
4c	.
!LO:TX:t=P:diminuendolike accent:problem	!
8d^<L	.
8cJ	.
=63	=63
4B	.
8cL	.
8BJ	.
4A)	.
=64	=64
4G	.
.	>
4g	.
4e	.
.	]
=65	=65
8f#L	.
8eJ	.
2d	>
=66	=66
(>4c	.
4d	.
.	]
8eL	.
8dJ)	.
=67	=67
4c	.
8fnL	.
8eJ	.
4d	.
=68	=68
4c	.
4A	.
8aL	.
8gJ	.
=69	=69
(>8f#L	>
8eJ	.
4d)	]
4r	.
=70	=70
!LO:TX:t=P:problem: 1 nad pauzą	!
!LO:TX:B:a:t=1	!
2.rc	.
=71	=71
4r	.
(>2A^<	.
!!LO:LB:g=original
=72	=72
4d)	.
4r	.
4r	.
*clefF4	*
=73	=73
4r	.
(<4BB	>
8AAL	.
8BBJ)	]
=74	=74
2.C	.
=75	=75
2.GG	.
=76	=76
2.C	.
=77	=77
2.GG	.
=78	=78
*	*^
(>8GGL	<	.
8FF#X	.	.
8GG	.	.
8AA	.	.
!LO:TX:t=P:'cres.' should be between the angle lines of crescendo mark:problem	!	!
8BB	.	<
8D#XJ	.	.
=79	=79	=79
8EL	.	.
.	[	.
8F#	.	.
8A	.	.
8G	.	.
8E	.	.
8C#XJ	.	.
*	*v	*v
=80	=80
4D)	.
!LO:TX:Bi:t=Pizz.	!
4r	.
4DD'<	.
=81	=81
!!LO:TX:a:Bi:t=1o.
*>B1	*>B1
4GG'<	.
!LO:TX:Bi:b:t=Arco.	!
4r	.
4G	.
=:|!	=:|!
!!LO:TX:a:Bi:t=2o.
*>B2	*>B2
!LO:TX:B:b:t=FINE.	!
4GG'<	.
!LO:TX:t=P:there should be two fermatas, above and below the barline:problem	!
!LO:TX:t=P:the natural accidental and metre mark should appear in the next line:problem	!
4r;>	.
!!LO:LB:g=original
==82	==82
*>C	*>C
!!!OMD: TRIO.
*M3/4	*
*k[]	*
!LO:TX:t=P:'TRIO.' before the staff:problem	!
4r	.
*clefC4	*
!LO:TX:Bi:a:t=dolce.	!
=83	=83
4d`>	.
(>4A	.
4B	.
=84	=84
4c	.
4G\)	.
(>4g	.
=85	=85
4f	.
8gL	>
8f	.
8d	.
8fJ)	]
=86	=86
[>2.e	>
=87	=87
2e]^	.
4r	.
=88	=88
2.rF	.
*clefF4	*
=89	=89
2.rF	.
=90	=90
!LO:TX:Bi:a:t=Pizz.	!
4D'/	.
4GG'<	.
4r	.
*clefC4	*
!LO:TX:Bi:a:t=Arco.	!
=91	=91
(>4d	.
4A	.
4d	.
=92	=92
4c	.
4A	.
4c)	.
*clefF4	*
!!LO:LB:g=original
=93	=93
2.c 2.D	.
=94	=94
*^	*
(<4c	2D 2GG	.
4B)	.	.
4r	4rFFyy	.
*	*	*
*v	*v	*
*clefC4	*
=95	=95
(>4.G	.
8eL	<
8d	.
8eJ	[
=96	=96
4c)	>
(>8B\L	.
8A	.
8GM>	]
8F#XJ	.
=97	=97
(>4.G)	>
8eL	.
8d	.
8eJ	]
=	=
4c)	.
4r	.
=98:|!|:	=98:|!|:
*>D	*>D
*clefF4	*
!	!LO:DY:rj
(>8EL	f <
8FJ	[
=99	=99
4G`>)	.
4r	.
4r	.
=100	=100
4r	.
4r	.
(<8GGL	<
8AAJ	.
=101	=101
!LO:TX:t=P:crescendo is not displayed correctly:problem	!
4BB-X`)	[
4r	.
4r	.
=102	=102
4r	.
!	!LO:DY:rj
(>4E	f
4D	.
!!LO:LB:g=original
=103	=103
4C#X)	.
4r	.
4r	.
=104	=104
4r	.
4r	.
(>8GL	<
8AJ	.
.	[
=105	=105
4B-X`>)	.
.	.
4r	.
.	.
!	!LO:HP:a
(<8GGL	<
!LO:TX:t=P:crescendo ends behind the barline:problem	!
8AAJ	[[
=106	=106
4BB-X`<)	.
4r	.
(<4C	.
=107	=107
4BBn)	.
4r	.
.	.
4r	.
=108	=108
4r	.
.	.
4r	<
(<8AAL	.
8BBJ	.
=109	=109
!LO:TX:t=P:crescendo is not displayed correctly:problem	!
4C`<)	[
4r	.
.	.
4r	.
.	.
=110	=110
4r	.
4CC`	.
(<4C^>	.
=111	=111
4BB`<)	.
4r	.
4r	.
=112	=112
4r	.
4r	.
(>8AL	<
8BJ	.
=113	=113
!LO:TX:t=P:crescendo is not displayed correctly:problem	!
4c)	[
4r	.
!	!LO:HP:a
(<8AAL	<
8BBJ	[[
=114	=114
!	!LO:HP:a
2C	>
4BB)	]
!!LO:LB:g=original
=115	=115
(>4.BB	.
8GL	>
8F#X	.
8GJ	]
=116	=116
4E)	.
4r	.
4r	.
=117	=117
2.rF	.
*clefC4	*
=118	=118
2.rF	.
=119	=119
(>4.f	p
.	>
8dL	.
8f	.
8cJ	]]
=120	=120
4B)	.
4r	.
4r	.
=121	=121
!	!LO:DY:rj
!LO:TX:t=P:decrescendo should start before the notes:problem	!
!LO:TX:Bi:b:t=poco rallentando.	!
(>8fL	p>
8e	.
.	]
8g	.
8f	.
8d	.
8cJ	.
=122	=122
4B)	.
4f^<	.
4e	.
=123	=123
!LO:TX:Bi:b:t=a Tempo.	!
4d`>	.
!LO:TX:Bi:a:t=dolce.	!
(>4A	.
4B	.
=124	=124
4c)	.
4G	.
(>4g	.
=125	=125
4f	.
8gL	>
8f	.
8d	.
8fJ)	]
=126	=126
[>2.e	>
.	.
=127	=127
!LO:TX:t=P:diminuendolike accent:problem	!
2e]^<	.
4r	.
!!LO:LB:g=original
=128	=128
2.rc	.
*clefF4	*
=129	=129
2.rc	.
=130	=130
4D`	.
4GG`	.
4r	.
*clefC4	*
=131	=131
!LO:TX:Bi:b:t=Arco.	!
(>4d	.
4A	.
4d	.
=132	=132
4c	.
4A	.
4c)	.
*clefF4	*
=133	=133
2.c 2.D	.
=134	=134
*^	*
(<4c	2D 2GG^<	.
4B)	.	.
4r	4rGGyy	.
*clefC4	*	*
*v	*v	*
=135	=135
(>4.G	.
.	<
8eL	.
8d	.
8eJ	[
=136	=136
4c)	>
(>\8BL	.
8A	.
8GM>	]
!LO:TX:B:b:t=SCHERZO D.C.AL FINE.	!
8F#XJ	.
=137	=137
4.G/)	.
(>8eL	>
8d	.
8eJ	]
=138	=138
4c)	.
4r	.
=:|!	=:|!
*-	*-
!!title: @{OTL}; @{OPS} @{ONM} publisher: @{PPR}
!!!RDF**kern: > = above
!!!RDF**kern: < = below
!!!RDF**dynam: > = "dimin." fontstyle="bold-italic"
!!!RDF**dynam: < = "cres." fontstyle="bold-italic"
!!!ENC: Zofia Niedbalska
!!!END: 2020-08-22
!!!EED: 
!!!EST: 
!!!rism-genre: Trio
!!!rism-key: G minor
!!!rism-opus: op.  8
!!!rism-title: Trio in G minor op.  8